X:1
T:Never Alone
T:Never Alone
T:J. C. H. & V. A. White
T:V. A. White, 1896
T:Public Domain Courtesy of the Cyber Hymnal™
T:Public Domain Courtesy of the Cyber Hymnal™
C:J. C. H. & V. A. White
Z:Public Domain
Z:Courtesy of the Cyber Hymnal™
%%score ( 1 2 ) ( 3 4 )
L:1/8
Q:1/4=111
M:6/8
K:C
V:1 treble 
V:2 treble 
V:3 bass 
V:4 bass 
V:1
 [EG]2 [EG] ([CE][EG])[Ec] | [Ge]3 [Fd]2 [Ge] | [Ac]2 [Ac] [GB]2 [FA] | [EG]3- [EG]2 [EG] | %4
w: 1.~Lone- ly? no, * not|lone- ly While|Je- sus stand- eth|by; * His|
w: 2.~Wear- y? no, * not|wear- y While|lean- ing on His|breast; * My|
w: 3.~Wait- ing? O * yes,|wait- ing; He|bade me watch and|wait; * I|
 [FG]2 [FG] ([B,D][CE])[DF] | [FB]3 [FB]2 [FA] | [EG]2 [FA] [EG]2 [DF] | [CE]3- [CE]2 z | %8
w: pre- sence al- * ways|cheers me; I|know that He is|nigh; *|
w: soul hath full * en-|joy- ment, ’Tis|His e- ter- nal|rest. *|
w: on- ly won- * der|oft- en, What|makes my Lord so|late. *|
 [EG]2 [EG] ([CE][EG])[Ec] | [Ge]3 [Fd]2 [Ge] | [Ac]2 [Ac] [GB]2 [FA] | [EG]3- [EG]2 ([EG]/[EG]/) | %12
w: Friend- less? no, * not|friend- less, For|Je- sus is my|friend; * I *|
w: Help- less yes, * so|help- less; But|I am lean- ing|hard * On~the *|
w: Joy- ful? yes, * so|joy- ful; With|joy too deep for|words; * A *|
 [FG]2 [FG] ([B,D][CE])[DF] | [FB]3 [FB]2 [FA] | [EG]2 [EG] (GA)[FB] | [Ec]3- [Ec]2 z |: %16
w: change, but He * re-|main- eth The|same un- to * the|end. *|
w: might- y arm * of|Je- sus, And|He is keep- * ing|guard. *|
w: pre- cious, sure * foun-|da- tion; The|joy that is * my|Lord’s. *|
"^Refrain" [EG]3 [CE][EG][Ec] | ([Ge]3- [Ge][Fd][Ge]) | [Ac]3 [Ad][Ac][FA] | %19
w: |||
w: No, ne- ver a-|lone, * * *|no, ne- ver a-|
w: |||
 [EG]3- [EG]2 [EG]/[EG]/ | [FG]2 [FG] [B,D][CE][DF] | [FB]3 (B2 A) |1 [EG]>[EG][EG] [DG][DG][B,F] | %23
w: ||||
w: lone; * He has|prom- ised ne- ver to|leave me, *|Ne- ver to leave me a-|
w: ||||
 [CE]3- [CE]2 z :|2 [EG]>[EG][EG] [FG][FA][FB] || [Ec]3- [Ec]2 z |] %26
w: |||
w: lone; *|Ne- ver to leave me a-|lone. *|
w: |||
V:2
 x6 | x6 | x6 | x6 | x6 | x6 | x6 | x6 | x6 | x6 | x6 | x6 | x6 | x6 | x3 F2 x | x6 |: x6 | x6 | %18
 x6 | x6 | x6 | x3 F3 |1 x6 | x6 :|2 x6 || x6 |] %26
V:3
 [C,C]2 [C,C] (G,C)[C,C] | [C,C]3 [C,C]2 [C,C] | [F,C]2 [F,C] [F,C]2 [F,C] | [C,C]3- [C,C]2 [C,C] | %4
w: ~ ~ ~ * ~|~ ~ ~|~ ~ ~ ~|~ * ~|
 [G,B,]2 [G,B,] G,2 [G,B,] | [G,D]3 [G,D]2 [G,B,] | [G,C]2 [G,C] [G,C]2 [G,B,] | [C,C]3- [C,C]2 z | %8
w: ~ ~ ~ ~|~ ~ ~|~ ~ ~ ~|~ *|
 [C,C]2 [C,C] (G,C)[C,C] | [C,C]3 [C,C]2 [C,C] | [F,C]2 [F,C] [F,C]2 [F,C] | %11
w: ~ ~ ~ * ~|~ ~ ~|~ ~ ~ ~|
 [C,C]3- [C,C]2 ([C,C]/[C,C]/) | [G,B,]2 [G,B,] G,2 [G,B,] | [G,D]3 [G,D]2 [G,B,] | %14
w: ~ * ~ *|~ ~ ~ ~|~ ~ ~|
 [G,C]2 [G,C] (B,C)[G,D] | [C,C]3- [C,C]2 z |: [C,C]2 z [C,G,]2 z | [C,C][C,C][C,C] [C,C]2 z | %18
w: ~ ~ ~ * ~|~ *|No, no,|ne- ver a- lone,|
 [F,C]2 z [F,C]2 z | [C,C][C,C][C,C] [C,C]2 [G,C]/[G,C]/ | [G,B,]2 [G,B,] G,G,G, | %21
w: no, no,|ne- ver a- lone; * *||
 [G,D]3 (D2 B,) |1 [G,C]>[G,C][G,C] [G,B,][G,B,][G,,G,] | [C,G,]3- [C,G,]2 z :|2 %24
w: |||
 [G,C]>[G,C][G,C] [G,B,][G,C][G,D] || [C,C]3- [C,C]2 z |] %26
w: ||
V:4
 x3 C,2 x | x6 | x6 | x6 | x3 G,2 x | x6 | x6 | x6 | x3 C,2 x | x6 | x6 | x6 | x3 G,2 x | x6 | %14
 x3 G,2 x | x6 |: x6 | x6 | x6 | x6 | x3 G,G,G, | x3 G,3 |1 x6 | x6 :|2 x6 || x6 |] %26

